src/assets/img/providers/tripleprofitsgames-g.svg

<svg width="80" height="28" viewBox="0 0 80 28" fill="none" xmlns="http://www.w3.org/2000/svg">
<path fill-rule="evenodd" clip-rule="evenodd" d="M3.96752 13.4181C3.68816 13.23 3.4087 13.0419 3.14373 12.8349C1.09424 11.2273 1.09594 11.2234 2.14871 8.81703L2.14898 8.81642C5.90983 0.224761 17.4237 -1.53532 23.5632 5.52003C24.7606 6.91831 25.6602 8.54607 26.2071 10.3038C26.3952 10.9056 26.3482 11.3644 25.831 11.7988C25.1216 12.4123 24.3783 12.9855 23.6046 13.5156C23.0837 13.871 22.8261 13.8108 22.7754 13.1395C22.7288 12.2939 22.5234 11.4646 22.1699 10.695L22.1678 10.6819C22.1234 10.4041 22.079 10.1264 21.8032 9.96536L21.4534 9.3749C21.4743 9.06802 21.2835 8.87917 21.0922 8.6899L21.0472 8.6453C20.1524 7.35373 18.9012 6.35022 17.4462 5.75697C14.8268 4.69453 12.2487 4.6494 9.74966 6.13305C8.01402 6.92283 6.72781 8.15639 5.98881 9.93151C5.32502 10.9244 5.13133 12.0658 4.99406 13.211C4.91885 13.8428 4.68379 13.9086 4.21745 13.5871C4.13441 13.5304 4.05097 13.4742 3.96752 13.4181ZM40.6187 8.11131V14.6928C40.6182 15.2947 40.6151 15.897 40.612 16.4993V16.4995V16.4996V16.4998V16.5V16.5001V16.5003V16.5005V16.5006V16.5008V16.501V16.5016V16.5019V16.5022V16.5024V16.5027V16.5029V16.5032V16.5034V16.5037V16.504C40.6041 18.0281 40.5963 19.5525 40.63 21.0731C40.6507 21.844 40.3912 22.0133 39.6653 22.0133C37.4311 21.9862 35.2023 21.9894 32.9748 21.9925H32.9748H32.9747H32.9747H32.9747H32.9747H32.9746H32.9746H32.9746H32.9746H32.9746H32.9742H32.9738H32.9734H32.973H32.9726H32.9722H32.9718H32.9714H32.971H32.9706C32.2561 21.9935 31.5417 21.9945 30.8273 21.9945C29.1011 21.9907 27.8638 20.9546 27.8187 19.2152C27.734 15.9621 27.7585 12.7033 27.7999 9.44829C27.8003 9.1713 27.8558 8.89716 27.9631 8.6418C28.0704 8.38643 28.2274 8.15493 28.4249 7.96073C28.6224 7.76654 28.8566 7.61352 29.1137 7.51057C29.3709 7.40762 29.6459 7.35679 29.9229 7.36102C31.9107 7.33871 33.8979 7.33956 35.8852 7.34041C37.2479 7.341 38.6106 7.34158 39.9737 7.3347C40.5623 7.33094 40.6187 7.64685 40.6187 8.11131ZM36.9315 12.7188C37.3501 12.7119 37.7687 12.7049 38.1873 12.7353C38.8285 12.7804 39.0392 12.5416 38.9489 11.9436C38.9319 11.8292 38.9387 11.7029 38.9455 11.5775C38.9672 11.1755 38.9885 10.7824 38.223 10.8154C37.2855 10.8547 36.347 10.8456 35.4083 10.8364C35.0008 10.8325 34.5933 10.8285 34.1858 10.8285H30.1485C30.1083 10.8285 30.067 10.8263 30.0253 10.8241C29.8231 10.8134 29.6126 10.8022 29.4847 11.0391C29.3866 11.2089 29.3345 11.4013 29.3334 11.5974C29.3324 11.7935 29.3824 11.9864 29.4787 12.1573C29.5749 12.3281 29.714 12.4709 29.8822 12.5716C30.0505 12.6723 30.2421 12.7274 30.4381 12.7315C30.6182 12.7321 30.7981 12.7354 30.9777 12.7387H30.9778H30.9779H30.9779H30.978H30.978H30.9781H30.9782H30.9782H30.9783H30.9784C31.427 12.7469 31.8742 12.7551 32.3185 12.7202C32.9992 12.6676 33.1798 12.9553 33.1628 13.5946C33.1503 14.2055 33.1554 14.817 33.1604 15.4284C33.1674 16.2887 33.1745 17.1487 33.1327 18.0061C33.0951 18.785 33.498 18.7587 33.9211 18.731C34.0046 18.7256 34.0889 18.72 34.1707 18.7207C34.2447 18.7212 34.3207 18.7261 34.3962 18.731C34.8275 18.7589 35.2455 18.7859 35.2087 17.9986C35.167 17.1191 35.174 16.2397 35.1811 15.3602C35.1861 14.7353 35.1911 14.1104 35.1786 13.4856C35.1636 12.9177 35.3573 12.692 35.9308 12.7165C36.2644 12.7298 36.598 12.7243 36.9315 12.7188ZM42.2076 7.33472C45.9346 7.35603 49.661 7.35603 53.3868 7.33472C53.9941 7.33096 54.2047 7.51524 54.1972 8.13954C54.1772 12.4921 54.1772 16.8446 54.1972 21.1972C54.201 21.8065 54.0167 22.0114 53.3943 22.0114C49.6685 21.9813 45.9428 21.9813 42.217 22.0114C41.51 22.0171 41.3991 21.72 41.3991 21.1107C41.4184 19.5287 41.4154 17.9406 41.4125 16.3553V16.3542V16.3531V16.352V16.3508V16.3497V16.3486V16.3474V16.3463V16.3452V16.344C41.4114 15.7718 41.4103 15.2 41.4103 14.6289C41.4103 14.0334 41.4118 13.4374 41.4132 12.8411V12.84V12.839V12.838V12.837V12.836V12.835V12.834V12.833V12.8319V12.8309C41.417 11.2705 41.4208 9.70781 41.3991 8.14706C41.3897 7.52276 41.5946 7.33472 42.2076 7.33472ZM52.2366 13.4492C52.2278 12.9266 52.219 12.4038 52.2453 11.8835C52.2867 11.058 51.999 10.6631 51.1171 10.6988C50.3075 10.7304 49.4962 10.7233 48.6849 10.7162H48.6848H48.6848H48.6847H48.6846H48.6846H48.6845H48.6845H48.6844H48.6844H48.6843C48.3368 10.7131 47.9894 10.7101 47.6421 10.7101C47.2811 10.7101 46.9203 10.7146 46.5598 10.719H46.5597H46.5596H46.5595H46.5594H46.5593H46.5592H46.5591H46.559H46.559H46.5589C45.7271 10.7293 44.8968 10.7396 44.0693 10.695C43.3385 10.6565 43.3567 11.0405 43.3764 11.4556C43.3798 11.5265 43.3832 11.5983 43.3829 11.6691C43.3827 11.7303 43.3802 11.792 43.3777 11.853L43.3777 11.8532C43.3607 12.2753 43.345 12.6638 44.0843 12.6375C45.237 12.5957 46.3906 12.6056 47.5445 12.6156H47.5446H47.5446H47.5446H47.5447H47.5447H47.5447H47.5448H47.5448H47.5448H47.5449L47.5451 12.6156C48.0512 12.62 48.5574 12.6244 49.0637 12.6244C49.1305 12.6244 49.2013 12.621 49.2733 12.6175C49.6839 12.5978 50.1381 12.576 50.1637 13.1678C50.1716 13.8308 49.7003 13.7994 49.2763 13.7711C49.1928 13.7656 49.1112 13.7601 49.0355 13.7601C48.8299 13.7623 48.6243 13.7647 48.4185 13.7671L48.418 13.7671C47.0277 13.7833 45.633 13.7996 44.2441 13.7488C43.507 13.7169 43.3397 13.9764 43.3773 14.6571C43.4318 15.6592 43.4318 16.6636 43.3773 17.6658C43.3397 18.3634 43.4882 18.6436 44.2799 18.6248C45.0377 18.606 45.3762 18.4461 45.2596 17.6413C45.2297 17.4368 45.2389 17.2269 45.248 17.0169C45.2568 16.8174 45.2655 16.6179 45.2408 16.4228C45.143 15.6443 45.4984 15.4638 46.2111 15.4826C47.3458 15.512 48.4833 15.5062 49.6204 15.5005C50.0812 15.4981 50.5419 15.4958 51.0024 15.4958C52.0573 15.4958 52.2453 15.3209 52.2453 14.2321C52.2453 13.9714 52.241 13.7103 52.2366 13.4492ZM26.4817 12.6807C26.2627 12.596 26.132 12.7422 26.0065 12.8827C25.9844 12.9075 25.9624 12.9321 25.9401 12.9552C25.1315 13.7829 24.2261 14.5103 23.2436 15.1215L23.2148 15.1399C22.9605 15.303 22.7019 15.4688 22.6475 15.8041C22.4594 16.8947 21.9837 17.8594 21.4139 18.7902C21.3788 18.85 21.344 18.9102 21.3093 18.9704C21.0077 19.4929 20.7061 20.0156 20.1277 20.3039C19.0258 21.6766 17.5177 22.3724 15.8592 22.7391C13.4146 23.2731 11.1055 22.9271 9.02382 21.4604C7.99335 20.8474 7.09827 20.0989 6.55106 19.0008C6.07673 18.4669 5.86022 17.7976 5.64834 17.1426C5.46543 16.5772 5.28596 16.0224 4.94706 15.5746C4.55155 15.052 3.97571 14.6674 3.38928 14.2757C2.89115 13.943 2.38537 13.6052 1.97599 13.1733C1.92734 13.1247 1.88183 13.0634 1.83556 13.0012C1.70301 12.8228 1.5642 12.636 1.32725 12.7126C1.01635 12.8075 1.04308 13.0757 1.06797 13.3256C1.07515 13.3976 1.08217 13.4681 1.08091 13.5325C0.990651 17.8142 2.61722 21.3118 5.90232 24.0629C9.64248 27.1863 15.3157 27.7598 19.7573 25.4488C24.2703 23.0963 27.1116 18.1151 26.696 13.2617C26.6922 13.2165 26.6918 13.1698 26.6914 13.1231C26.6899 12.9408 26.6883 12.76 26.4817 12.6807ZM67.8698 11.953C67.8435 9.279 65.9894 7.38729 63.3267 7.35345C62.0008 7.33713 60.675 7.33851 59.3491 7.33989H59.349C58.2303 7.34106 57.1117 7.34223 55.993 7.33276C55.3574 7.33276 55.113 7.49636 55.1168 8.17519C55.1431 12.4964 55.1431 16.8176 55.1168 21.1388C55.1168 21.891 55.4045 22.017 56.057 22.0076C58.3417 21.9756 60.6283 21.97 62.9149 22.0076C64.1183 22.0264 65.2052 21.7594 66.1793 21.0523L66.9202 20.2851C67.6347 19.3129 67.8961 18.2167 67.8717 17.0245C67.8575 16.1173 67.8629 15.209 67.8683 14.3005V14.2993C67.873 13.5171 67.8776 12.7348 67.8698 11.953ZM66.341 17.6093C66.2658 18.2242 65.7505 18.6059 65.0454 18.5984C64.2732 18.5884 63.5009 18.5917 62.7287 18.595C62.3426 18.5967 61.9565 18.5984 61.5704 18.5984H58.1856C57.204 18.5984 56.6117 18.0154 56.6004 17.0357C56.5829 15.4399 56.5829 13.8434 56.6004 12.2463C56.6098 11.3061 57.1833 10.7269 58.1236 10.7213C59.327 10.7133 60.5305 10.7138 61.7339 10.7143C62.787 10.7148 63.84 10.7153 64.8931 10.71C65.1269 10.701 65.3595 10.7474 65.5719 10.8455C65.7843 10.9435 65.9705 11.0904 66.1154 11.2741C66.2468 11.4111 66.341 11.5794 66.3891 11.7631C66.4371 11.9467 66.4374 12.1396 66.3899 12.3234C66.2803 12.6804 65.9851 12.65 65.713 12.6219C65.6397 12.6143 65.5682 12.607 65.5023 12.6074C65.1174 12.6074 64.7324 12.6078 64.3475 12.6083C62.6979 12.6103 61.0485 12.6123 59.4004 12.5773C58.8362 12.5641 58.6012 12.7183 58.6219 13.3031C58.652 14.1775 58.6538 15.0557 58.6219 15.9357C58.6012 16.4904 58.8513 16.6315 59.3552 16.6239C60.2945 16.6114 61.2355 16.6156 62.1749 16.6198H62.175C62.6441 16.6218 63.1127 16.6239 63.5805 16.6239L63.6245 16.624C63.9623 16.6249 64.3219 16.6259 64.3327 16.1519C64.344 15.6574 64.0281 15.4957 63.6012 15.49C63.4067 15.488 63.2122 15.4849 63.0175 15.4819C62.3351 15.4714 61.6519 15.4608 60.9686 15.49C60.3036 15.524 60.3133 15.1348 60.324 14.7069L60.3255 14.6401C60.3268 14.5772 60.3255 14.5147 60.3243 14.4536C60.3164 14.0747 60.3097 13.7525 60.9348 13.7525C62.3733 13.7864 63.8137 13.7732 65.2598 13.7525C65.8239 13.7525 66.1304 13.9838 66.2658 14.5216C66.5178 15.5559 66.467 16.5957 66.341 17.6093ZM10.7313 6.20256C12.198 5.70236 13.6948 5.45979 15.2443 5.73433C18.3263 6.27965 20.376 8.11119 21.6415 10.8848C22.5422 13.1695 22.4087 15.4204 21.4271 17.6449L21.051 18.3971L19.7046 20.0895C19.5611 20.1927 19.4197 20.2995 19.2785 20.4063C18.972 20.6378 18.6658 20.8692 18.3376 21.0635C15.0149 23.0286 11.7956 22.7352 8.67408 20.584L6.79366 18.7412C6.78708 18.587 6.75663 18.4348 6.7034 18.2899C5.28368 15.789 5.22726 13.2053 6.22389 10.5557C7.12085 8.97994 8.13064 7.49817 9.77977 6.57864C10.0773 6.62052 10.3016 6.47495 10.5259 6.32934L10.526 6.32934L10.526 6.32933L10.526 6.32933L10.526 6.32932L10.526 6.32932L10.526 6.32931C10.5937 6.28534 10.6615 6.24137 10.7313 6.20256ZM9.81623 19.0649L9.81621 19.0648C9.70628 18.6649 9.60749 18.3054 9.5372 17.9402C9.14043 15.883 10.1239 14.5234 12.2055 14.2113C12.7041 14.164 13.2067 14.1824 13.7005 14.2658C13.8778 14.2837 14.055 14.3106 14.2322 14.3376C14.7635 14.4184 15.2961 14.4994 15.8404 14.3373L15.9042 14.3185C16.4048 14.1712 16.909 14.023 17.0532 13.4422C17.1849 12.8743 16.8295 12.4719 16.4327 12.1616C15.4775 11.417 14.4789 10.7438 13.2416 10.5068C11.6564 10.1891 10.0712 10.2135 8.47288 10.3301C8.02722 10.3621 7.82413 10.5821 7.63609 10.945C6.13175 13.8803 7.11709 17.7126 9.98662 19.6984C9.9285 19.4734 9.871 19.2642 9.81626 19.065L9.81623 19.0649ZM13.6365 20.9545C16.6151 21.1106 19.4075 19.2057 20.4437 16.3155H20.4418C21.4534 13.4854 20.4437 10.1439 18.0499 8.41582C15.4549 6.55044 12.1905 6.55044 9.75721 8.43086C9.59367 8.47171 9.44236 8.5513 9.31603 8.6629C9.18971 8.77449 9.09207 8.91484 9.03136 9.07208L9.03937 9.07185C9.48324 9.0588 9.84372 9.0482 10.1596 8.82951C12.0118 8.61326 13.8434 8.63206 15.6298 9.26201C17.9446 10.0781 19.6576 12.1635 19.6576 14.1906C19.6595 15.5445 19.0691 16.2835 17.7659 16.6107C17.0596 16.7624 16.3276 16.7476 15.6279 16.5675C15.409 16.521 15.1912 16.4676 14.9734 16.4142L14.9734 16.4142L14.9734 16.4142L14.9734 16.4142L14.9733 16.4142L14.9733 16.4142L14.9733 16.4142C14.5213 16.3033 14.0696 16.1926 13.6102 16.1444C12.0739 15.9864 11.0509 16.9191 10.9043 18.5889C10.7576 20.2587 11.1525 20.6987 12.9821 20.8962C13.2003 20.9206 13.4184 20.9432 13.6365 20.9545ZM76.3336 6.40013C76.2305 6.42038 76.1239 6.41276 76.0247 6.37806C75.9255 6.34335 75.8374 6.28281 75.7695 6.20268C75.6427 6.15123 75.5023 6.14462 75.3713 6.18395C75.2403 6.22328 75.1267 6.30619 75.0493 6.41893L73.701 10.7063L73.5129 11.2704C73.5241 11.3724 73.513 11.4757 73.4806 11.573C73.4481 11.6704 73.395 11.7596 73.3249 11.8346L73.1218 12.5754C73.0664 13.0546 72.8961 13.5132 72.6254 13.9124C72.6208 14.1715 72.5543 14.4224 72.4876 14.6737C72.3913 15.0371 72.2946 15.4015 72.3847 15.7928C72.4083 15.8393 72.4181 15.8915 72.4129 15.9433C73.0786 16.3739 73.6145 16.1727 74.0733 15.5992C74.0357 15.3792 74.0225 15.1648 74.2256 15.0068C74.2751 14.5554 74.4213 14.1199 74.6544 13.73C75.3351 11.6139 76.0164 9.49719 76.6984 7.37983L76.7149 7.32778C76.8472 6.91076 76.9709 6.52109 76.3336 6.40013ZM76.9626 1.90339C77.3554 1.93318 77.7307 2.07862 78.041 2.32138C78.7161 2.82157 79.064 3.50981 78.9041 4.35036C78.8494 4.7576 78.6754 5.13954 78.4041 5.44806C78.1327 5.75659 77.7761 5.9779 77.3791 6.08411C77.1062 6.14193 76.8287 6.17591 76.5499 6.18565C76.3853 6.0544 76.1767 5.99115 75.9669 6.00889L75.5908 5.82085C74.3291 4.49139 74.4212 2.86482 75.8334 2.15402C76.1768 1.96082 76.5697 1.87361 76.9626 1.90339ZM32.2395 4.33154C32.7585 4.78096 33.0895 5.24919 32.7529 5.91486C32.7059 6.50343 32.9616 6.68959 33.411 6.39061C33.9394 6.03897 34.4152 5.94871 34.9398 6.35112C35.1278 6.48839 35.3366 6.58241 35.5453 6.42822C35.754 6.27402 35.7126 6.02392 35.6337 5.8246C35.3986 5.22662 35.645 4.82421 36.0831 4.43497C36.5212 4.04572 36.4592 3.66963 35.8405 3.63767C35.2219 3.6057 34.8853 3.3368 34.6558 2.78395C34.4678 2.31573 34.1237 2.08068 33.8322 2.71814C33.5558 3.32364 33.1572 3.62826 32.4727 3.65835C32.0101 3.66963 31.8427 3.98743 32.2395 4.33154ZM60.0284 6.00706C60.3519 5.29062 60.1037 4.79418 59.5564 4.3504C59.171 4.03261 59.2669 3.67721 59.7483 3.65653C60.4647 3.62268 60.8784 3.34062 61.1586 2.68247C61.388 2.14279 61.7603 2.28946 61.9371 2.73888C62.1721 3.3331 62.5256 3.62268 63.1876 3.63772C63.6896 3.64901 63.8965 3.97244 63.4565 4.35793C62.9694 4.78666 62.7381 5.20412 62.9393 5.89047C63.1105 6.46776 62.7513 6.66333 62.2586 6.34365C61.7171 5.9939 61.2507 6.02398 60.728 6.38314C60.2842 6.69153 60.051 6.49409 60.0284 6.00706ZM45.8952 4.39939C46.339 4.8018 46.6925 5.21549 46.3709 5.81347C46.3051 6.45093 46.542 6.68975 47.0498 6.31554C47.6139 5.90749 48.0558 6.02408 48.5804 6.34939C49.0637 6.64838 49.3457 6.4152 49.1934 5.89809C49.0054 5.27191 49.1276 4.82437 49.6335 4.41631C50.1393 4.00826 49.9701 3.67919 49.389 3.66414C48.7666 3.6397 48.4243 3.38208 48.2062 2.81607C48.0031 2.28955 47.6421 2.17297 47.3901 2.76718C47.3031 3.03257 47.134 3.26343 46.9072 3.42636C46.6804 3.58929 46.4076 3.67586 46.1283 3.67355C45.5981 3.70363 45.4702 4.01202 45.8952 4.39939ZM74.875 13.8879C74.911 13.7362 74.9472 13.584 75.1432 13.5644C75.4146 13.541 75.4312 13.7426 75.4461 13.9236C75.4491 13.9609 75.4521 13.9974 75.4573 14.0308C76.0402 16.417 74.6919 19.5517 72.5859 20.742C72.0857 21.2497 71.4445 21.4942 70.7882 21.6822C69.6825 22 68.716 21.3569 68.7009 20.2079C68.6712 17.4679 68.6835 14.7263 68.6959 11.9846C68.6976 11.6067 68.6993 11.2288 68.7009 10.851C68.7028 10.4542 68.7648 10.0405 69.1184 9.75844C69.769 8.90284 70.4967 8.66215 71.4369 8.99498C72.142 9.2424 72.72 9.69224 73.2985 10.1424L73.3174 10.1571L73.3061 11.0503C73.2382 11.1309 73.1875 11.2245 73.1571 11.3254C73.1267 11.4263 73.1172 11.5323 73.1293 11.637C73.1022 11.6528 73.0714 11.6612 73.04 11.6612C73.0086 11.6612 72.9778 11.6528 72.9507 11.637C72.7576 11.7739 72.8238 11.9109 72.89 12.0478C72.9147 12.0989 72.9394 12.15 72.9507 12.2011C72.6272 12.7276 72.3132 13.2579 72.4392 13.9179C72.1252 14.2997 71.8149 14.6814 71.8469 15.2211C71.8187 15.6648 71.9164 16.0296 72.3828 16.1951C72.426 16.5336 72.6742 16.5618 72.9356 16.5712C73.0241 16.6286 73.1281 16.6572 73.2335 16.6532C73.3388 16.6491 73.4404 16.6126 73.5242 16.5486L73.874 16.5317L74.2933 15.9864L74.4682 15.6103L74.8142 14.0759C74.8434 14.0208 74.8592 13.9544 74.875 13.8879Z" fill="#00AB55"/>
</svg>

<svg xmlns="http://www.w3.org/2000/svg" width="80" height="28" fill="none"><path fill="#00AB55" fill-rule="evenodd" d="M3.968 13.418c-.28-.188-.56-.376-.824-.583-2.05-1.608-2.048-1.612-.995-4.018C5.909.224 17.424-1.536 23.563 5.52a13.538 13.538 0 0 1 2.644 4.784c.188.602.141 1.06-.376 1.495a25.039 25.039 0 0 1-2.226 1.717c-.521.355-.779.295-.83-.377a6.746 6.746 0 0 0-.605-2.444l-.002-.013c-.045-.278-.089-.556-.365-.717l-.35-.59c.021-.307-.17-.496-.36-.685l-.046-.045a8.102 8.102 0 0 0-3.6-2.888c-2.62-1.062-5.198-1.108-7.697.376-1.736.79-3.022 2.023-3.761 3.799-.664.992-.858 2.134-.995 3.279-.075.632-.31.698-.777.376a41.753 41.753 0 0 0-.25-.169Zm36.65-5.307v6.582c0 .602-.003 1.204-.006 1.806v.005c-.008 1.524-.016 3.048.018 4.57.02.77-.239.94-.965.94-2.234-.028-4.463-.025-6.69-.021h-.004l-2.144.002c-1.726-.004-2.963-1.04-3.008-2.78-.085-3.253-.06-6.512-.02-9.767a2.09 2.09 0 0 1 2.124-2.087c1.988-.022 3.975-.021 5.962-.02 1.363 0 2.726 0 4.089-.006.588-.004.645.312.645.776Zm-3.687 4.608c.42-.007.838-.014 1.256.016.642.045.852-.193.762-.791a1.873 1.873 0 0 1-.003-.367c.021-.402.043-.795-.723-.762-.938.04-1.876.03-2.815.021-.407-.004-.815-.008-1.222-.008h-4.038c-.04 0-.081-.002-.123-.004-.202-.01-.412-.022-.54.215a1.129 1.129 0 0 0 .953 1.693c.18 0 .36.003.54.007.449.008.896.016 1.34-.019.681-.052.862.235.845.875-.013.61-.008 1.222-.003 1.833.007.86.015 1.72-.027 2.578-.038.779.365.753.788.725.084-.005.168-.011.25-.01.074 0 .15.005.225.01.431.028.85.055.813-.732a47.566 47.566 0 0 1-.028-2.639c.005-.625.01-1.25-.002-1.874-.015-.568.178-.794.752-.77.333.014.667.008 1 .003Zm5.277-5.384c3.727.021 7.453.021 11.179 0 .607-.004.818.18.81.805-.02 4.352-.02 8.705 0 13.057.004.61-.18.814-.803.814-3.725-.03-7.451-.03-11.177 0-.707.006-.818-.291-.818-.9.02-1.582.016-3.17.014-4.756v-.011l-.003-1.715.003-1.788V12.831c.004-1.56.008-3.123-.014-4.684-.01-.624.196-.812.809-.812Zm10.029 6.114a23.28 23.28 0 0 1 .008-1.566c.042-.825-.246-1.22-1.128-1.184-.81.031-1.62.024-2.432.017-.348-.003-.696-.006-1.043-.006-.36 0-.722.005-1.082.009h-.001c-.832.01-1.662.02-2.49-.024-.73-.039-.712.345-.693.76a4.116 4.116 0 0 1 .002.398c-.017.422-.033.81.706.784a77.05 77.05 0 0 1 3.46-.021h.001c.506.004 1.012.008 1.519.008.066 0 .137-.003.21-.007.41-.02.864-.041.89.55.008.664-.464.632-.888.604-.083-.005-.165-.01-.24-.01-.206.001-.412.004-.617.006h-.001c-1.39.016-2.785.033-4.174-.018-.737-.032-.904.227-.867.908a27.703 27.703 0 0 1 0 3.009c-.037.697.111.978.903.959.758-.019 1.096-.179.98-.984-.03-.204-.021-.414-.012-.624.009-.2.018-.4-.007-.594-.098-.779.257-.96.97-.94 1.135.029 2.272.023 3.41.018.46-.003.92-.005 1.381-.005 1.055 0 1.243-.175 1.243-1.264 0-.26-.004-.522-.008-.783Zm-25.755-.768c-.22-.085-.35.061-.476.202-.022.025-.044.05-.066.072a14.413 14.413 0 0 1-2.696 2.166l-.03.019c-.253.163-.512.329-.566.664-.189 1.09-.664 2.055-1.234 2.986l-.105.18c-.301.523-.603 1.046-1.181 1.334-1.102 1.373-2.61 2.068-4.269 2.435-2.444.534-4.754.188-6.835-1.279C7.994 20.847 7.098 20.1 6.55 19c-.474-.533-.69-1.202-.903-1.857-.183-.566-.362-1.12-.7-1.568-.396-.523-.972-.908-1.559-1.3-.498-.332-1.004-.67-1.413-1.102-.049-.048-.094-.11-.14-.172-.133-.178-.272-.365-.509-.288-.31.095-.284.363-.259.613.007.072.014.142.013.207-.09 4.281 1.536 7.779 4.821 10.53 3.74 3.123 9.414 3.697 13.855 1.386 4.513-2.353 7.355-7.334 6.939-12.187-.004-.046-.004-.092-.005-.139-.001-.182-.003-.363-.21-.442Zm41.388-.728c-.026-2.674-1.88-4.566-4.543-4.6-1.326-.016-2.652-.014-3.978-.013-1.119.001-2.237.002-3.356-.007-.636 0-.88.163-.876.842.026 4.321.026 8.643 0 12.964 0 .752.288.878.94.869 2.285-.032 4.571-.038 6.858 0 1.203.018 2.29-.249 3.264-.956l.741-.767c.715-.972.976-2.068.952-3.26-.014-.908-.01-1.816-.004-2.724v-.002c.005-.782.01-1.564.002-2.346Zm-1.529 5.656c-.075.615-.59.997-1.296.99-.772-.01-1.544-.007-2.316-.004-.386.002-.773.003-1.159.003h-3.384c-.982 0-1.574-.583-1.586-1.562a218.467 218.467 0 0 1 0-4.79c.01-.94.583-1.52 1.524-1.525 1.203-.008 2.407-.007 3.61-.007 1.053 0 2.106.001 3.16-.004a1.483 1.483 0 0 1 1.221.564 1.114 1.114 0 0 1 .275 1.05c-.11.356-.405.326-.677.298a1.99 1.99 0 0 0-.21-.015l-1.156.001c-1.65.002-3.298.004-4.947-.03-.564-.014-.799.14-.778.725.03.874.032 1.753 0 2.633-.02.554.23.695.733.688.94-.013 1.88-.008 2.82-.004.47.002.938.004 1.406.004h.043c.338 0 .698.002.709-.472.011-.495-.305-.656-.732-.662l-.584-.008c-.682-.01-1.365-.021-2.048.008-.665.034-.656-.355-.645-.783l.002-.067c0-.063 0-.125-.002-.186-.008-.38-.014-.702.61-.702 1.44.034 2.88.021 4.326 0 .564 0 .87.232 1.006.77.252 1.034.201 2.074.075 3.087ZM10.731 6.203c1.467-.5 2.964-.743 4.513-.469 3.082.546 5.132 2.377 6.398 5.15.9 2.285.767 4.536-.215 6.76l-.376.753-1.346 1.693c-.144.103-.285.21-.426.316-.307.232-.613.463-.941.658-3.323 1.965-6.542 1.671-9.664-.48l-1.88-1.843a1.493 1.493 0 0 0-.09-.451c-1.42-2.501-1.477-5.085-.48-7.734C7.12 8.98 8.13 7.498 9.78 6.579c.297.042.522-.104.746-.25.068-.044.136-.088.205-.126Zm-.915 12.862c-.11-.4-.209-.76-.279-1.125-.397-2.057.587-3.417 2.668-3.729a5.728 5.728 0 0 1 1.495.055c.178.018.355.045.532.072.532.08 1.064.161 1.608 0l.064-.02c.5-.147 1.005-.295 1.15-.876.13-.568-.224-.97-.621-1.28-.956-.745-1.954-1.418-3.191-1.655-1.586-.318-3.17-.293-4.77-.177-.445.032-.648.252-.836.615-1.504 2.935-.519 6.768 2.35 8.753-.058-.225-.115-.434-.17-.633Zm3.82 1.89c2.98.156 5.771-1.75 6.808-4.64h-.002c1.011-2.83.002-6.171-2.392-7.9-2.595-1.865-5.86-1.865-8.293.016a1.051 1.051 0 0 0-.726.641h.008c.444-.013.805-.024 1.12-.242 1.853-.217 3.684-.198 5.47.432 2.316.816 4.029 2.902 4.029 4.929.002 1.353-.589 2.092-1.892 2.42a4.655 4.655 0 0 1-2.138-.044c-.219-.046-.437-.1-.655-.153-.452-.11-.903-.221-1.363-.27-1.536-.158-2.56.775-2.706 2.445-.146 1.67.248 2.11 2.078 2.307.218.025.436.047.655.058ZM76.335 6.4a.59.59 0 0 1-.565-.197.6.6 0 0 0-.72.216l-1.348 4.287-.188.564a.712.712 0 0 1-.188.565l-.203.74c-.056.48-.226.938-.497 1.337-.004.26-.07.51-.137.762-.097.363-.193.728-.103 1.119a.272.272 0 0 1 .028.15c.666.43 1.202.23 1.66-.344-.037-.22-.05-.434.153-.592a3.16 3.16 0 0 1 .428-1.277l2.044-6.35.017-.052c.132-.417.256-.807-.381-.928Zm.629-4.497c.392.03.768.176 1.078.418.675.5 1.023 1.189.863 2.03a2.082 2.082 0 0 1-1.525 1.733c-.273.058-.55.092-.83.102a.824.824 0 0 0-.582-.177l-.376-.188c-1.262-1.33-1.17-2.956.242-3.667.344-.193.737-.28 1.13-.25ZM32.24 4.332c.518.449.85.917.513 1.583-.047.588.209.775.658.476.528-.352 1.004-.442 1.529-.04.188.137.397.231.605.077.209-.154.168-.404.089-.603-.235-.598.011-1 .45-1.39.437-.39.375-.765-.244-.797-.618-.032-.955-.301-1.184-.854-.188-.468-.532-.703-.824-.066-.276.606-.675.91-1.36.94-.462.012-.63.33-.233.674Zm27.788 1.675c.324-.716.076-1.213-.472-1.657-.385-.317-.29-.673.192-.693.717-.034 1.13-.316 1.41-.975.23-.54.602-.393.78.057.234.594.588.884 1.25.899.502.011.709.334.268.72-.487.429-.718.846-.517 1.532.172.578-.188.773-.68.454-.542-.35-1.008-.32-1.531.04-.444.308-.677.11-.7-.377ZM45.895 4.4c.444.403.797.816.476 1.414-.066.638.171.877.679.503.564-.409 1.006-.292 1.53.033.484.3.766.066.613-.45-.188-.627-.065-1.075.44-1.483.506-.408.337-.737-.244-.752-.622-.024-.965-.282-1.183-.848-.203-.526-.564-.643-.816-.049a1.317 1.317 0 0 1-1.262.907c-.53.03-.658.338-.233.725Zm28.98 9.489c.036-.152.072-.304.268-.324.272-.023.288.179.303.36.003.037.006.073.011.107.583 2.386-.765 5.52-2.871 6.711-.5.508-1.141.752-1.798.94-1.105.318-2.072-.325-2.087-1.474-.03-2.74-.017-5.482-.005-8.223l.005-1.134c.002-.397.064-.81.417-1.093.651-.855 1.379-1.096 2.319-.763.705.247 1.283.697 1.862 1.147l.018.015-.01.893a.773.773 0 0 0-.178.587.177.177 0 0 1-.178 0c-.193.137-.127.274-.061.41.025.052.05.103.06.154-.323.527-.637 1.057-.51 1.717-.315.382-.625.763-.593 1.303-.028.444.07.809.536.974.043.339.291.367.553.376a.512.512 0 0 0 .588-.022l.35-.017.42-.546.174-.376.346-1.534a.803.803 0 0 0 .061-.188Z" clip-rule="evenodd"/></svg>
